svgs/sharp-solid/arrow-up-1-9.svg

<svg xmlns="http://www.w3.org/2000/svg" viewBox="0 0 576 512"><!--! Font Awesome Pro 6.6.0 by @fontawesome - https://fontawesome.com License - https://fontawesome.com/license (Commercial License) Copyright 2024 Fonticons, Inc. --><path d="M352 32l32 0 48 0 32 0 0 32 0 96 16 0 32 0 0 64-32 0-48 0-48 0-32 0 0-64 32 0 16 0 0-64-16 0-32 0 0-64zm-192 .6l23.6 25.7 88 96L293.2 178 246 221.2l-21.6-23.6L192 162.3 192 448l0 32-64 0 0-32 0-285.7L95.6 197.6 74 221.2 26.8 178l21.6-23.6 88-96L160 32.6zM432 368a32 32 0 1 0 0-64 32 32 0 1 0 0 64zm-88-32c0-48.6 39.4-88 88-88s88 39.4 88 88c0 22.6-6.2 44.8-18 64.1L453.5 480l-74.9 0 10.1-16.6 25.1-41.3C373.9 413.7 344 378.3 344 336z"/></svg>

<svg xmlns="http://www.w3.org/2000/svg" viewBox="0 0 576 512"><!--! Font Awesome Pro 6.4.2 by @fontawesome - https://fontawesome.com License - https://fontawesome.com/license (Commercial License) Copyright 2023 Fonticons, Inc. --><path d="M352 32h32 48 32V64v96h16 32v64H480 432 384 352V160h32 16V96H384 352V32zm-192 .6l23.6 25.7 88 96L293.2 178 246 221.2l-21.6-23.6L192 162.3V448v32H128V448 162.3L95.6 197.6 74 221.2 26.8 178l21.6-23.6 88-96L160 32.6zM432 368a32 32 0 1 0 0-64 32 32 0 1 0 0 64zm-88-32c0-48.6 39.4-88 88-88s88 39.4 88 88c0 22.6-6.2 44.8-18 64.1L453.5 480H378.5l10.1-16.6 25.1-41.3C373.9 413.7 344 378.3 344 336z"/></svg>
